X:1
T:Tehran, 76.76 D
T:Tehran, 76.76 D
T:Tullius Clinton O’Kane (1830-1912)
T:Public Domain Courtesy of the Cyber Hymnal™
C:Tullius Clinton O’Kane (1830-1912)
Z:Public Domain
Z:Courtesy of the Cyber Hymnal™
%%score ( 1 2 ) ( 3 4 )
L:1/8
Q:1/4=105
M:3/4
K:F
V:1 treble 
V:2 treble 
V:3 bass 
V:4 bass 
V:1
 F2 | [FA]>[EG] [FA]2 [Fc]2 | [Ec]2 [EB]2 [EA]2 | [EG]>[^D^F] [EG]2 [GB]2 | (B2 A2) [CF]2 | %5
 [FA]>[EG] [FA]2 [Fc]2 | [Fc]2 [FB]2 [FA]2 | [CG]>[C^F] [CG]2 [EA]2 | F4 [Ec]2 | %9
 (c>G) [EG]2 [EG][EB] | (B>A) [FA]2 [FA]2 | [EG]>[FA] [GB]2 [Ec]2 | [FA]4 [Fc]2 | %13
 [Fd]>[E^c] [Fd]2 [FB]2 | (d>c) [Fc]2 [FA]2 | [CG]>[C^F] [EG]2 [EA]2 | F4 |] %17
V:2
 F2 | x6 | x6 | x6 | F4 x2 | x6 | x6 | x6 | F4 x2 | E2 x4 | F2 x4 | x6 | x6 | x6 | F2 x4 | x6 | %16
 F4 |] %17
V:3
 [F,A,]2 | [F,C]>[F,C] [F,C]2 [F,A,]2 | G,2 G,2 [C,C]2 | [C,C]>[C,C] [C,C]2 [C,C]2 | %4
 (D2 C2) [F,A,]2 | [F,C]>[F,C] [F,C]2 [A,,_E]2 | [B,,_E]2 [B,,D]2 [C,C]2 | %7
 [C,B,]>[C,A,] [C,B,]2 [C,C]2 | [F,A,]4 [C,G,]2 | (G,>C) [C,C]2 [C,B,][C,G,] | %10
 (A,>C) [F,C]2 [F,C]2 | [C,C]>[C,C] [C,C]2 [C,C]2 | [F,C]4 [F,A,]2 | [B,,B,]>[B,,B,] B,2 B,2 | %14
 (B,>A,) [F,A,]2 [F,C]2 | [C,B,]>[C,A,] [C,B,]2 [C,C]2 | [F,A,]4 |] %17
V:4
 x2 | x6 | x6 | x6 | F,4 x2 | x6 | x6 | x6 | x6 | C,2 x4 | F,2 x4 | x6 | x6 | x2 (B,,C,) (D,E,) | %14
 F,2 x4 | x6 | x4 |] %17

